assets/sonr-icons/mail-receive.svg

<svg xmlns="http://www.w3.org/2000/svg" width="24" height="24" fill="none" viewBox="0 0 24 24"><path fill="#000" d="M15.293 18.293C14.902 18.684 14.902 19.317 15.293 19.708L17.293 21.708C17.684 22.099 18.317 22.099 18.707 21.708C19.097 21.317 19.098 20.684 18.707 20.293L18.414 20H22C22.552 20 23 19.552 23 19C23 18.448 22.552 18 22 18H18.414L18.707 17.707C19.098 17.316 19.098 16.683 18.707 16.292C18.316 15.901 17.683 15.901 17.292 16.292L15.292 18.292L15.293 18.293ZM6.17602 8.43403C6.48902 7.97903 7.11102 7.86303 7.56602 8.17503L11.435 10.828C11.776 11.062 12.225 11.062 12.567 10.828L16.436 8.17403C16.891 7.86103 17.514 7.97703 17.826 8.43303C18.138 8.88903 18.023 9.51103 17.567 9.82403L13.698 12.478C12.675 13.179 11.326 13.179 10.303 12.478L6.43502 9.82403C5.98002 9.51103 5.86302 8.89003 6.17602 8.43403Z"/><path fill="#000" d="M7.75902 4.00002H16.241C17.046 4.00002 17.71 4.00002 18.252 4.04402C18.814 4.09002 19.33 4.18902 19.816 4.43602C20.568 4.81902 21.18 5.43102 21.564 6.18402C21.811 6.66902 21.91 7.18602 21.955 7.74802C21.999 8.29002 21.999 8.95302 21.999 9.75902V14C21.999 14.552 21.551 15 20.999 15C20.447 15 19.999 14.552 19.999 14V9.80002C19.999 8.94302 19.998 8.36202 19.962 7.91102C19.926 7.47202 19.861 7.24902 19.781 7.09202C19.589 6.71502 19.283 6.40902 18.907 6.21802C18.75 6.13802 18.527 6.07302 18.088 6.03702C17.638 6.00002 17.055 6.00002 16.199 6.00002H7.79902C6.94202 6.00002 6.36002 6.00102 5.91002 6.03702C5.47102 6.07302 5.24802 6.13802 5.09102 6.21802C4.71402 6.41002 4.40802 6.71602 4.21702 7.09202C4.13802 7.24902 4.07202 7.47202 4.03602 7.91102C3.99902 8.36102 3.99902 8.94402 3.99902 9.80002V14.2C3.99902 15.057 4.00002 15.639 4.03602 16.089C4.07202 16.528 4.13702 16.751 4.21702 16.908C4.40902 17.285 4.71502 17.591 5.09102 17.782C5.24802 17.862 5.47102 17.927 5.91002 17.963C6.36002 18 6.94302 18.001 7.79902 18.001H11.999C12.551 18.001 12.999 18.449 12.999 19.001C12.999 19.553 12.551 20.001 11.999 20.001H7.75802C6.95302 20.001 6.28902 20.001 5.74702 19.957C5.18502 19.911 4.66802 19.812 4.18302 19.565C3.43002 19.182 2.81902 18.57 2.43502 17.817C2.18702 17.332 2.08902 16.815 2.04302 16.253C1.99902 15.712 1.99902 15.048 1.99902 14.242V9.75902C1.99902 8.95402 1.99902 8.29002 2.04302 7.74802C2.08902 7.18602 2.18802 6.66902 2.43502 6.18302C2.81802 5.43002 3.43002 4.81902 4.18302 4.43502C4.66802 4.18702 5.18502 4.08902 5.74702 4.04302C6.28902 3.99902 6.95202 3.99902 7.75802 3.99902L7.75702 4.00102L7.75902 4.00002Z"/></svg>

<svg xmlns="http://www.w3.org/2000/svg" width="24" height="24" fill="none"><path fill="currentColor" d="M15.293 18.293a1 1 0 0 0 0 1.415l2 2a1.001 1.001 0 0 0 1.414-1.415L18.414 20H22a1 1 0 0 0 0-2h-3.586l.293-.293a1 1 0 1 0-1.415-1.415zM6.176 8.434a1 1 0 0 1 1.39-.259l3.869 2.653a1 1 0 0 0 1.132 0l3.869-2.654a1 1 0 0 1 1.131 1.65l-3.869 2.654a3 3 0 0 1-3.395 0L6.435 9.824a1 1 0 0 1-.259-1.39"/><path fill="currentColor" d="M7.759 4h8.482c.805 0 1.469 0 2.011.044.562.046 1.078.145 1.564.392a4 4 0 0 1 1.748 1.748c.247.485.346 1.002.391 1.564.044.542.044 1.205.044 2.011V14a1 1 0 0 1-2 0V9.8c0-.857-.001-1.438-.037-1.889-.036-.439-.101-.662-.181-.819a2 2 0 0 0-.874-.874c-.157-.08-.38-.145-.819-.181C17.638 6 17.055 6 16.199 6h-8.4c-.857 0-1.439.001-1.889.037-.439.036-.662.101-.819.181a2 2 0 0 0-.874.874c-.079.157-.145.38-.181.819-.037.45-.037 1.033-.037 1.889v4.4c0 .857.001 1.439.037 1.889.036.439.101.662.181.819.192.377.498.683.874.874.157.08.38.145.819.181.45.037 1.033.038 1.889.038h4.2a1 1 0 0 1 0 2H7.758c-.805 0-1.469 0-2.011-.044-.562-.046-1.079-.145-1.564-.392a4 4 0 0 1-1.748-1.748c-.248-.485-.346-1.002-.392-1.564-.044-.541-.044-1.205-.044-2.011V9.759c0-.805 0-1.469.044-2.011.046-.562.145-1.079.392-1.565a4 4 0 0 1 1.748-1.748c.485-.248 1.002-.346 1.564-.392.542-.044 1.205-.044 2.011-.044l-.001.002z"/></svg>
